X:1
T:Title
%%score 1 2 3
L:1/8
M:2/2
K:C
V:1 treble nm="Part_1"
V:2 treble-8 nm="Part_2"
V:3 bass nm="Part_3"
V:1
 A8- | A8 | G8 | A8 | c8 | (3:2:2d8 c4 | B4 A4- | A2 ^G2 G2 ^F2 | A8- | A8 | z8 | z8 | A8- | A8 | %14
 G8 | A8 | F8 | E4 F4- | F2 D2 D4- | D4 ^C4 | D8- | D8 | z8 | G8 | G8 | D8 | D8 | C8 | F8 | %29
 G4 _B4- | B2 A2 A4- | A4 ^G4 | A8 | z8 | A8 | G8 | A8 | F8 | E8 | F8 | D8 | E8 | C8 | D4 E4- | %44
 E2 D2 D4- | D4 ^C4 | D8 |] %47
V:2
 d8 | c4 d4 | e8 | c4 f4 | e8 | f4 d4- | d4 c4 | B8 | A8 | z8 | A8 | G4 A4 | F4 D4- | D4 F4 | E8 | %15
 D8 | A8- | A8 | F4 G4 | E8 | D8 | z4 G4- | G4 G4- | G4 E4- | E2 F2 G4- | G2 F2 D2 E2 | F4 G4 | %27
 A8 | z4 d4 | e4 d4- | d4 c4 | d4 B4 | A8- | A8 | z4 A4 | B4 c4- | c4 F4- | F2 G2 A4 | G4 A4- | %39
 A4 D4- | D2 E2 F4 | G4 A4- | A8 | F4 G4- | G2 F2 D4 | E8 | D8 |] %47
V:3
 D,8 | F,8 | E,8 | F,4 D,4 | A,,8 | D,8 | G,,4 A,,4 | E,8 | A,,4 D,4- | D,2 C,2 D,4 | %10
 A,,2 B,,2 C,2 D,2 | B,,4 A,,4 | D,8 | z4 D,4 | G,4 E,4 | F,4 D,4 | D,8 | A,,4 D,4- | D,4 G,,4 | %19
 A,,8 | z4 B,,4- | B,,4 G,,4 | G,,6 A,,2 | B,,4 C,4- | C,2 B,,2 G,,4- | G,,2 A,,2 B,,2 C,2 | %26
 D,4 B,,4 | A,,8 | D,8 | C,4 G,4- | G,4 A,4 | D,4 E,4 | F,4 D,4- | D,2 A,,2 D,4- | D,2 E,2 F,4 | %35
 E,4 C,4 | (3:2:2F,8 D,4 | D,8 | E,4 A,,4 | D,8 | z4 D,4 | C,4 A,,4 | A,,8 | D,4 C,4- | %44
 C,2 D,2 B,,4 | A,,8 | A,8 |] %47

